Newaita-dark/apps/16/visual-studio-code-insiders.svg

<?xml version="1.0" encoding="UTF-8"?>
<svg xmlns="http://www.w3.org/2000/svg" xmlns:xlink="http://www.w3.org/1999/xlink" width="16pt" height="16pt" viewBox="0 0 16 16" version="1.1">
<defs>
<linearGradient id="linear0" gradientUnits="userSpaceOnUse" x1="254" y1="233.5" x2="254" y2="254.666672" gradientTransform="matrix(0.031253,0,0,0.031253,-0.00000190753,6.719393)">
<stop offset="0" style="stop-color:rgb(0%,0%,0%);stop-opacity:0.27451;"/>
<stop offset="1" style="stop-color:rgb(0%,0%,0%);stop-opacity:0;"/>
</linearGradient>
<radialGradient id="radial0" gradientUnits="userSpaceOnUse" cx="450.908936" cy="189.579361" fx="450.908936" fy="189.579361" r="21.166656" gradientTransform="matrix(0.0000000870852,-0.0390662,-0.0703192,-0.0000000507693,26.561465,31.797666)">
<stop offset="0" style="stop-color:rgb(0%,0%,0%);stop-opacity:0.313725;"/>
<stop offset="0.222222" style="stop-color:rgb(0%,0%,0%);stop-opacity:0.27451;"/>
<stop offset="1" style="stop-color:rgb(0%,0%,0%);stop-opacity:0;"/>
</radialGradient>
<radialGradient id="radial1" gradientUnits="userSpaceOnUse" cx="450.908936" cy="189.579361" fx="450.908936" fy="189.579361" r="21.166656" gradientTransform="matrix(-0.0000000870852,0.0390662,0.0703192,0.0000000507693,-10.60226,-3.763739)">
<stop offset="0" style="stop-color:rgb(0%,0%,0%);stop-opacity:0.313725;"/>
<stop offset="0.222222" style="stop-color:rgb(0%,0%,0%);stop-opacity:0.27451;"/>
<stop offset="1" style="stop-color:rgb(0%,0%,0%);stop-opacity:0;"/>
</radialGradient>
<radialGradient id="radial2" gradientUnits="userSpaceOnUse" cx="450.908936" cy="189.579361" fx="450.908936" fy="189.579361" r="21.166656" gradientTransform="matrix(-0.0000000870852,-0.0390662,0.0703192,-0.0000000507693,-10.60226,31.797666)">
<stop offset="0" style="stop-color:rgb(0%,0%,0%);stop-opacity:0.313725;"/>
<stop offset="0.222222" style="stop-color:rgb(0%,0%,0%);stop-opacity:0.27451;"/>
<stop offset="1" style="stop-color:rgb(0%,0%,0%);stop-opacity:0;"/>
</radialGradient>
<radialGradient id="radial3" gradientUnits="userSpaceOnUse" cx="450.908936" cy="189.579361" fx="450.908936" fy="189.579361" r="21.166656" gradientTransform="matrix(0.0000000870852,0.0390662,-0.0703192,0.0000000507693,26.561464,-3.76374)">
<stop offset="0" style="stop-color:rgb(0%,0%,0%);stop-opacity:0.313725;"/>
<stop offset="0.222222" style="stop-color:rgb(0%,0%,0%);stop-opacity:0.27451;"/>
<stop offset="1" style="stop-color:rgb(0%,0%,0%);stop-opacity:0;"/>
</radialGradient>
<linearGradient id="linear1" gradientUnits="userSpaceOnUse" x1="275.166656" y1="-803.666687" x2="285.75" y2="233.5" gradientTransform="matrix(0.031253,0,0,0.031253,0,6.719392)">
<stop offset="0" style="stop-color:rgb(25.882353%,25.882353%,25.882353%);stop-opacity:1;"/>
<stop offset="1" style="stop-color:rgb(38.039216%,38.039216%,38.039216%);stop-opacity:1;"/>
</linearGradient>
<linearGradient id="linear2" gradientUnits="userSpaceOnUse" x1="254" y1="233.5" x2="254" y2="-697.833313" >
<stop offset="0" style="stop-color:rgb(25.882353%,25.882353%,25.882353%);stop-opacity:1;"/>
<stop offset="1" style="stop-color:rgb(38.039216%,38.039216%,38.039216%);stop-opacity:1;"/>
</linearGradient>
<linearGradient id="linear3" gradientUnits="userSpaceOnUse" x1="960" y1="1295.118164" x2="960" y2="535.118103" >
<stop offset="0" style="stop-color:rgb(50.588235%,78.039216%,51.764706%);stop-opacity:1;"/>
<stop offset="1" style="stop-color:rgb(64.705882%,83.921569%,65.490196%);stop-opacity:1;"/>
</linearGradient>
<linearGradient id="linear4" gradientUnits="userSpaceOnUse" x1="254" y1="127.666656" x2="254" y2="-73.416664" >
<stop offset="0" style="stop-color:rgb(40%,73.333333%,41.568627%);stop-opacity:1;"/>
<stop offset="1" style="stop-color:rgb(50.588235%,78.039216%,51.764706%);stop-opacity:1;"/>
</linearGradient>
</defs>
<g id="surface1">
<path style=" stroke:none;fill-rule:nonzero;fill:url(#linear0);" d="M 2.5625 14.015625 L 13.394531 14.015625 L 13.394531 14.679688 L 2.5625 14.679688 Z M 2.5625 14.015625 "/>
<path style=" stroke:none;fill-rule:nonzero;fill:url(#radial0);" d="M 13.394531 14.015625 L 14.71875 14.015625 L 14.71875 13.355469 L 13.394531 13.355469 Z M 13.394531 14.015625 "/>
<path style=" stroke:none;fill-rule:nonzero;fill:url(#radial1);" d="M 2.5625 14.015625 L 1.242188 14.015625 L 1.242188 14.679688 L 2.5625 14.679688 Z M 2.5625 14.015625 "/>
<path style=" stroke:none;fill-rule:nonzero;fill:url(#radial2);" d="M 2.5625 14.015625 L 1.242188 14.015625 L 1.242188 13.355469 L 2.5625 13.355469 Z M 2.5625 14.015625 "/>
<path style=" stroke:none;fill-rule:nonzero;fill:url(#radial3);" d="M 13.394531 14.015625 L 14.71875 14.015625 L 14.71875 14.679688 L 13.394531 14.679688 Z M 13.394531 14.015625 "/>
<path style=" stroke:none;fill-rule:nonzero;fill:url(#linear1);" d="M 1.820312 1.449219 L 14.058594 1.449219 C 14.332031 1.449219 14.554688 1.671875 14.554688 1.945312 L 14.554688 13.519531 C 14.554688 13.792969 14.332031 14.015625 14.058594 14.015625 L 1.820312 14.015625 C 1.546875 14.015625 1.324219 13.792969 1.324219 13.519531 L 1.324219 1.945312 C 1.324219 1.671875 1.546875 1.449219 1.820312 1.449219 Z M 1.820312 1.449219 "/>
<path style=" stroke:none;fill-rule:nonzero;fill:rgb(100%,100%,100%);fill-opacity:0.392157;" d="M 1.820312 1.449219 C 1.542969 1.449219 1.324219 1.667969 1.324219 1.945312 L 1.324219 2.027344 C 1.324219 1.753906 1.542969 1.53125 1.820312 1.53125 L 14.058594 1.53125 C 14.332031 1.53125 14.554688 1.753906 14.554688 2.027344 L 14.554688 1.945312 C 14.554688 1.667969 14.332031 1.449219 14.058594 1.449219 Z M 1.820312 1.449219 "/>
<path style=" stroke:none;fill-rule:nonzero;fill:rgb(1.176471%,1.176471%,1.176471%);fill-opacity:0.235294;" d="M 1.820312 14.015625 C 1.542969 14.015625 1.324219 13.796875 1.324219 13.519531 L 1.324219 13.4375 C 1.324219 13.710938 1.542969 13.933594 1.820312 13.933594 L 14.058594 13.933594 C 14.332031 13.933594 14.554688 13.710938 14.554688 13.4375 L 14.554688 13.519531 C 14.554688 13.796875 14.332031 14.015625 14.058594 14.015625 Z M 1.820312 14.015625 "/>
<path style=" stroke:none;fill-rule:nonzero;fill:rgb(12.941177%,12.941177%,12.941177%);fill-opacity:1;" d="M 1.820312 1.402344 C 1.519531 1.402344 1.277344 1.644531 1.277344 1.945312 L 1.277344 13.519531 C 1.277344 13.820312 1.519531 14.0625 1.820312 14.0625 L 14.058594 14.0625 C 14.355469 14.0625 14.601562 13.820312 14.601562 13.519531 L 14.601562 1.945312 C 14.601562 1.644531 14.355469 1.402344 14.058594 1.402344 Z M 1.820312 1.496094 L 14.058594 1.496094 C 14.308594 1.496094 14.507812 1.695312 14.507812 1.945312 L 14.507812 13.519531 C 14.507812 13.769531 14.308594 13.96875 14.058594 13.96875 L 1.820312 13.96875 C 1.570312 13.96875 1.371094 13.769531 1.371094 13.519531 L 1.371094 1.945312 C 1.371094 1.695312 1.570312 1.496094 1.820312 1.496094 Z M 1.820312 1.496094 "/>
<path style="fill-rule:nonzero;fill:url(#linear2);stroke-width:3;stroke-linecap:round;stroke-linejoin:round;stroke:rgb(12.941177%,12.941177%,12.941177%);stroke-opacity:1;stroke-miterlimit:4;" d="M 105.86489 -115.759477 L 402.211591 -115.759477 C 407.961042 -115.759477 412.710588 -111.009931 412.710588 -105.135492 L 412.710588 169.963238 C 412.710588 175.837677 407.961042 180.587223 402.211591 180.587223 L 105.86489 180.587223 C 99.990451 180.587223 95.240905 175.837677 95.240905 169.963238 L 95.240905 -105.135492 C 95.240905 -111.009931 99.990451 -115.759477 105.86489 -115.759477 Z M 105.86489 -115.759477 " transform="matrix(0.031253,0,0,0.031253,0,6.719392)"/>
<path style="fill-rule:nonzero;fill:url(#linear3);stroke-width:11.338583;stroke-linecap:round;stroke-linejoin:round;stroke:rgb(12.941177%,12.941177%,12.941177%);stroke-opacity:1;stroke-miterlimit:4;" d="M 680.250036 535.224507 C 670.329723 534.752111 659.937014 538.531278 651.906284 547.034404 L 571.598988 626.869304 C 564.040655 634.427638 559.789092 644.347951 559.789092 655.213055 L 559.789092 1175.320895 C 559.789092 1185.713604 564.040655 1196.106313 571.598988 1203.192251 L 651.906284 1283.499547 C 667.495348 1299.08861 692.532328 1299.08861 708.121391 1283.499547 L 1199.88548 791.735458 L 1199.88548 1038.326096 L 1355.303717 1193.744334 C 1358.610488 1188.075583 1360.027676 1181.462041 1360.027676 1175.320895 L 1360.027676 655.213055 C 1360.027676 644.347951 1355.776113 634.427638 1348.217779 626.869304 L 1268.382879 547.034404 C 1260.824545 539.47607 1250.904232 535.224507 1240.511524 535.224507 C 1229.646419 534.752111 1219.25371 539.003674 1211.695376 547.034404 L 719.931288 1038.326096 C 719.931288 948.570883 719.931288 998.172448 719.931288 574.905759 C 719.931288 551.285966 700.563058 535.224507 680.250036 535.224507 Z M 1208.861001 1280.192776 C 1210.278189 1282.554755 1212.167772 1284.444338 1214.529751 1285.861526 Z M 1208.861001 1280.192776 " transform="matrix(0.00826902,0,0,0.00826902,0,0)"/>
<path style="fill-rule:nonzero;fill:url(#linear4);stroke-width:3;stroke-linecap:round;stroke-linejoin:round;stroke:rgb(12.941177%,12.941177%,12.941177%);stroke-opacity:1;stroke-miterlimit:4;" d="M 179.732836 -73.388523 C 176.983099 -73.388523 174.35835 -72.263631 172.483529 -70.263822 L 151.235558 -49.140839 C 149.235749 -47.14103 148.110856 -44.51628 148.110856 -41.641555 L 148.110856 95.970304 C 148.110856 98.720041 149.235749 101.469779 151.235558 103.3446 L 172.483529 124.592571 C 179.107896 131.216938 190.48181 126.467391 190.48181 117.093287 L 190.48181 -5.520004 L 320.594385 124.592571 C 324.718991 128.717177 331.468346 128.717177 335.592952 124.592571 L 356.715935 103.3446 C 358.715744 101.469779 359.840637 98.720041 359.840637 95.970304 L 359.840637 -41.641555 C 359.840637 -44.51628 358.715744 -47.14103 356.715935 -49.140839 L 335.592952 -70.263822 C 328.843597 -77.013177 317.469683 -72.263631 317.469683 -62.889526 C 317.469683 49.09978 317.469683 35.976033 317.469683 59.723765 L 187.357108 -70.263822 C 185.357299 -72.388619 182.607562 -73.513511 179.732836 -73.388523 Z M 179.732836 -73.388523 " transform="matrix(0.031253,0,0,0.031253,0,6.719392)"/>
</g>
</svg>

<svg xmlns="http://www.w3.org/2000/svg" width="16pt" height="16pt" viewBox="0 0 16 16"><defs><linearGradient id="a" gradientUnits="userSpaceOnUse" x1="254" y1="233.5" x2="254" y2="254.667" gradientTransform="matrix(.03125 0 0 .03125 0 6.72)"><stop offset="0" stop-opacity=".275"/><stop offset="1" stop-opacity="0"/></linearGradient><radialGradient id="b" gradientUnits="userSpaceOnUse" cx="450.909" cy="189.579" fx="450.909" fy="189.579" r="21.167" gradientTransform="matrix(0 -.03907 -.07032 0 26.561 31.798)"><stop offset="0" stop-opacity=".314"/><stop offset=".222" stop-opacity=".275"/><stop offset="1" stop-opacity="0"/></radialGradient><radialGradient id="c" gradientUnits="userSpaceOnUse" cx="450.909" cy="189.579" fx="450.909" fy="189.579" r="21.167" gradientTransform="matrix(0 .03907 .07032 0 -10.602 -3.764)"><stop offset="0" stop-opacity=".314"/><stop offset=".222" stop-opacity=".275"/><stop offset="1" stop-opacity="0"/></radialGradient><radialGradient id="d" gradientUnits="userSpaceOnUse" cx="450.909" cy="189.579" fx="450.909" fy="189.579" r="21.167" gradientTransform="matrix(0 -.03907 .07032 0 -10.602 31.798)"><stop offset="0" stop-opacity=".314"/><stop offset=".222" stop-opacity=".275"/><stop offset="1" stop-opacity="0"/></radialGradient><radialGradient id="e" gradientUnits="userSpaceOnUse" cx="450.909" cy="189.579" fx="450.909" fy="189.579" r="21.167" gradientTransform="matrix(0 .03907 -.07032 0 26.561 -3.764)"><stop offset="0" stop-opacity=".314"/><stop offset=".222" stop-opacity=".275"/><stop offset="1" stop-opacity="0"/></radialGradient><linearGradient id="f" gradientUnits="userSpaceOnUse" x1="275.167" y1="-803.667" x2="285.75" y2="233.5" gradientTransform="matrix(.03125 0 0 .03125 0 6.72)"><stop offset="0" stop-color="#424242"/><stop offset="1" stop-color="#616161"/></linearGradient><linearGradient id="g" gradientUnits="userSpaceOnUse" x1="254" y1="233.5" x2="254" y2="-697.833"><stop offset="0" stop-color="#424242"/><stop offset="1" stop-color="#616161"/></linearGradient><linearGradient id="h" gradientUnits="userSpaceOnUse" x1="960" y1="1295.118" x2="960" y2="535.118"><stop offset="0" stop-color="#81c784"/><stop offset="1" stop-color="#a5d6a7"/></linearGradient><linearGradient id="i" gradientUnits="userSpaceOnUse" x1="254" y1="127.667" x2="254" y2="-73.417"><stop offset="0" stop-color="#66bb6a"/><stop offset="1" stop-color="#81c784"/></linearGradient></defs><path d="M2.563 14.016h10.832v.664H2.563zm0 0" fill="url(#a)"/><path d="M13.395 14.016h1.324v-.66h-1.324zm0 0" fill="url(#b)"/><path d="M2.563 14.016h-1.32v.664h1.32zm0 0" fill="url(#c)"/><path d="M2.563 14.016h-1.32v-.66h1.32zm0 0" fill="url(#d)"/><path d="M13.395 14.016h1.324v.664h-1.324zm0 0" fill="url(#e)"/><path d="M1.82 1.45H14.06c.273 0 .496.222.496.495V13.52a.497.497 0 0 1-.496.496H1.82a.497.497 0 0 1-.496-.496V1.945c0-.273.223-.496.496-.496zm0 0" fill="url(#f)"/><path d="M1.82 1.45a.492.492 0 0 0-.496.495v.082c0-.273.219-.496.496-.496H14.06c.273 0 .496.223.496.496v-.082a.494.494 0 0 0-.496-.496zm0 0" fill="#fff" fill-opacity=".392"/><path d="M1.82 14.016a.492.492 0 0 1-.496-.496v-.082c0 .273.219.496.496.496H14.06a.497.497 0 0 0 .496-.496v.082a.494.494 0 0 1-.496.496zm0 0" fill="#030303" fill-opacity=".235"/><path d="M1.82 1.402c-.3 0-.543.243-.543.543V13.52c0 .3.243.543.543.543H14.06a.544.544 0 0 0 .543-.543V1.945c0-.3-.247-.543-.543-.543zm0 .094H14.06c.25 0 .449.2.449.45V13.52c0 .25-.2.449-.45.449H1.82c-.25 0-.449-.2-.449-.45V1.946c0-.25.2-.449.45-.449zm0 0" fill="#212121"/><path d="M105.865-115.76h296.347c5.749 0 10.499 4.75 10.499 10.625v275.098c0 5.875-4.75 10.624-10.5 10.624H105.866a10.615 10.615 0 0 1-10.624-10.624v-275.098c0-5.875 4.75-10.624 10.624-10.624zm0 0" transform="matrix(.03125 0 0 .03125 0 6.72)" fill="url(#g)" stroke-width="3" stroke-linecap="round" stroke-linejoin="round" stroke="#212121"/><path d="M680.25 535.225c-9.92-.473-20.313 3.306-28.344 11.81L571.6 626.868c-7.558 7.559-11.81 17.479-11.81 28.344v520.108c0 10.393 4.252 20.785 11.81 27.871l80.307 80.308a39.632 39.632 0 0 0 56.215 0l491.764-491.765v246.591l155.419 155.418c3.306-5.668 4.724-12.282 4.724-18.423V655.213c0-10.865-4.252-20.785-11.81-28.344l-79.835-79.835c-7.558-7.558-17.479-11.81-27.871-11.81-10.866-.472-21.258 3.78-28.817 11.81l-491.764 491.292v-463.42c0-23.62-19.368-39.681-39.681-39.681zm528.611 744.968a16.284 16.284 0 0 0 5.669 5.669zm0 0" transform="rotate(.882) scale(.00827)" fill="url(#h)" stroke-width="11.339" stroke-linecap="round" stroke-linejoin="round" stroke="#212121"/><path d="M179.733-73.389a9.926 9.926 0 0 0-7.25 3.125L151.237-49.14c-2 2-3.125 4.625-3.125 7.5V95.97c0 2.75 1.125 5.5 3.125 7.375l21.248 21.248c6.624 6.624 17.998 1.874 17.998-7.5V-5.52l130.112 130.113c4.125 4.124 10.874 4.124 14.999 0l21.123-21.248c2-1.875 3.125-4.625 3.125-7.375V-41.642c0-2.874-1.125-5.499-3.125-7.499l-21.123-21.123c-6.75-6.75-18.123-2-18.123 7.374V59.724L187.357-70.264c-2-2.125-4.75-3.25-7.624-3.125zm0 0" transform="matrix(.03125 0 0 .03125 0 6.72)" fill="url(#i)" stroke-width="3" stroke-linecap="round" stroke-linejoin="round" stroke="#212121"/></svg>
